cached_logos/best-practices-badge.svg

<svg xmlns="http://www.w3.org/2000/svg" role="img" xmlns:xlink="http://www.w3.org/1999/xlink" viewBox="-0.55 2.20 249.60 195.10"><title>Best Practices Badge logo</title><defs><g id="glyph-0-0"><path d="M 4.394531 0 L 4.394531 -42.949219 L 20.507812 -42.949219 C 23.789062 -42.949219 26.421875 -42.515625 28.402344 -41.644531 C 30.386719 -40.777344 31.9375 -39.4375 33.0625 -37.632812 C 34.183594 -35.824219 34.746094 -33.9375 34.746094 -31.960938 C 34.746094 -30.125 34.25 -28.398438 33.25 -26.777344 C 32.253906 -25.15625 30.75 -23.847656 28.742188 -22.851562 C 31.339844 -22.089844 33.335938 -20.789062 34.730469 -18.953125 C 36.128906 -17.117188 36.828125 -14.953125 36.828125 -12.453125 C 36.828125 -10.441406 36.402344 -8.570312 35.550781 -6.839844 C 34.703125 -5.113281 33.652344 -3.78125 32.402344 -2.84375 C 31.152344 -1.90625 29.585938 -1.195312 27.699219 -0.71875 C 25.816406 -0.238281 23.507812 0 20.773438 0 Z M 10.078125 -24.902344 L 19.367188 -24.902344 C 21.886719 -24.902344 23.691406 -25.070312 24.785156 -25.398438 C 26.230469 -25.828125 27.320312 -26.542969 28.050781 -27.539062 C 28.785156 -28.535156 29.148438 -29.785156 29.148438 -31.289062 C 29.148438 -32.714844 28.808594 -33.96875 28.125 -35.054688 C 27.441406 -36.136719 26.464844 -36.878906 25.195312 -37.28125 C 23.925781 -37.679688 21.75 -37.882812 18.664062 -37.882812 L 10.078125 -37.882812 Z M 10.078125 -5.070312 L 20.773438 -5.070312 C 22.609375 -5.070312 23.898438 -5.136719 24.640625 -5.273438 C 25.949219 -5.507812 27.039062 -5.898438 27.921875 -6.445312 C 28.800781 -6.992188 29.523438 -7.789062 30.085938 -8.832031 C 30.652344 -9.878906 30.9375 -11.085938 30.9375 -12.453125 C 30.9375 -14.054688 30.527344 -15.445312 29.707031 -16.625 C 28.886719 -17.808594 27.75 -18.636719 26.292969 -19.117188 C 24.839844 -19.59375 22.742188 -19.835938 20.007812 -19.835938 L 10.078125 -19.835938 Z M 10.078125 -5.070312"/></g><g id="glyph-0-1"><path d="M 25.253906 -10.019531 L 30.703125 -9.34375 C 29.84375 -6.160156 28.25 -3.691406 25.929688 -1.933594 C 23.605469 -0.175781 20.632812 0.703125 17.023438 0.703125 C 12.472656 0.703125 8.863281 -0.699219 6.195312 -3.5 C 3.53125 -6.304688 2.195312 -10.234375 2.195312 -15.292969 C 2.195312 -20.527344 3.546875 -24.589844 6.242188 -27.480469 C 8.9375 -30.371094 12.429688 -31.816406 16.726562 -31.816406 C 20.886719 -31.816406 24.289062 -30.398438 26.921875 -27.570312 C 29.558594 -24.738281 30.878906 -20.75 30.878906 -15.617188 C 30.878906 -15.304688 30.867188 -14.835938 30.851562 -14.210938 L 7.648438 -14.210938 C 7.84375 -10.792969 8.808594 -8.171875 10.546875 -6.359375 C 12.285156 -4.542969 14.453125 -3.632812 17.050781 -3.632812 C 18.984375 -3.632812 20.632812 -4.140625 22 -5.15625 C 23.367188 -6.171875 24.453125 -7.792969 25.253906 -10.019531 Z M 7.9375 -18.546875 L 25.3125 -18.546875 C 25.078125 -21.164062 24.414062 -23.125 23.320312 -24.433594 C 21.640625 -26.464844 19.460938 -27.480469 16.789062 -27.480469 C 14.367188 -27.480469 12.328125 -26.671875 10.679688 -25.046875 C 9.027344 -23.425781 8.117188 -21.257812 7.9375 -18.546875 Z M 7.9375 -18.546875"/></g><g id="glyph-0-2"><path d="M 1.84375 -9.289062 L 7.0625 -10.109375 C 7.355469 -8.019531 8.167969 -6.414062 9.507812 -5.304688 C 10.84375 -4.191406 12.714844 -3.632812 15.117188 -3.632812 C 17.539062 -3.632812 19.335938 -4.125 20.507812 -5.113281 C 21.679688 -6.097656 22.265625 -7.257812 22.265625 -8.585938 C 22.265625 -9.777344 21.75 -10.710938 20.710938 -11.398438 C 19.988281 -11.867188 18.195312 -12.460938 15.320312 -13.183594 C 11.453125 -14.160156 8.773438 -15.003906 7.28125 -15.71875 C 5.785156 -16.429688 4.652344 -17.417969 3.882812 -18.675781 C 3.109375 -19.9375 2.726562 -21.328125 2.726562 -22.851562 C 2.726562 -24.238281 3.042969 -25.523438 3.675781 -26.703125 C 4.3125 -27.886719 5.175781 -28.867188 6.269531 -29.648438 C 7.089844 -30.253906 8.207031 -30.765625 9.625 -31.1875 C 11.039062 -31.605469 12.558594 -31.816406 14.179688 -31.816406 C 16.621094 -31.816406 18.765625 -31.464844 20.609375 -30.761719 C 22.457031 -30.058594 23.820312 -29.105469 24.695312 -27.90625 C 25.574219 -26.703125 26.179688 -25.097656 26.515625 -23.085938 L 21.359375 -22.382812 C 21.125 -23.984375 20.445312 -25.234375 19.320312 -26.132812 C 18.199219 -27.03125 16.609375 -27.480469 14.5625 -27.480469 C 12.140625 -27.480469 10.410156 -27.078125 9.375 -26.28125 C 8.339844 -25.480469 7.820312 -24.539062 7.820312 -23.46875 C 7.820312 -22.785156 8.039062 -22.167969 8.46875 -21.621094 C 8.898438 -21.054688 9.570312 -20.585938 10.488281 -20.214844 C 11.015625 -20.019531 12.570312 -19.570312 15.148438 -18.867188 C 18.878906 -17.871094 21.480469 -17.054688 22.953125 -16.421875 C 24.429688 -15.785156 25.585938 -14.863281 26.425781 -13.652344 C 27.265625 -12.441406 27.6875 -10.9375 27.6875 -9.140625 C 27.6875 -7.382812 27.171875 -5.726562 26.148438 -4.175781 C 25.121094 -2.621094 23.640625 -1.421875 21.710938 -0.570312 C 19.777344 0.277344 17.585938 0.703125 15.148438 0.703125 C 11.105469 0.703125 8.023438 -0.136719 5.902344 -1.816406 C 3.785156 -3.496094 2.429688 -5.984375 1.84375 -9.289062 Z M 1.84375 -9.289062"/></g><g id="glyph-0-3"><path d="M 15.46875 -4.71875 L 16.230469 -0.0585938 C 14.746094 0.253906 13.417969 0.410156 12.246094 0.410156 C 10.332031 0.410156 8.847656 0.109375 7.792969 -0.5 C 6.738281 -1.105469 5.996094 -1.898438 5.566406 -2.886719 C 5.136719 -3.871094 4.921875 -5.945312 4.921875 -9.109375 L 4.921875 -27.011719 L 1.054688 -27.011719 L 1.054688 -31.113281 L 4.921875 -31.113281 L 4.921875 -38.820312 L 10.164062 -41.984375 L 10.164062 -31.113281 L 15.46875 -31.113281 L 15.46875 -27.011719 L 10.164062 -27.011719 L 10.164062 -8.820312 C 10.164062 -7.316406 10.257812 -6.347656 10.445312 -5.917969 C 10.628906 -5.488281 10.933594 -5.148438 11.351562 -4.890625 C 11.773438 -4.636719 12.375 -4.511719 13.15625 -4.511719 C 13.742188 -4.511719 14.511719 -4.578125 15.46875 -4.71875 Z M 15.46875 -4.71875"/></g><g id="glyph-0-4"><path d="M 4.628906 0 L 4.628906 -42.949219 L 20.828125 -42.949219 C 23.679688 -42.949219 25.859375 -42.8125 27.363281 -42.539062 C 29.472656 -42.1875 31.242188 -41.519531 32.664062 -40.53125 C 34.089844 -39.546875 35.238281 -38.164062 36.109375 -36.386719 C 36.976562 -34.609375 37.414062 -32.65625 37.414062 -30.527344 C 37.414062 -26.875 36.25 -23.785156 33.925781 -21.253906 C 31.601562 -18.726562 27.402344 -17.460938 21.328125 -17.460938 L 10.3125 -17.460938 L 10.3125 0 Z M 10.3125 -22.53125 L 21.414062 -22.53125 C 25.085938 -22.53125 27.695312 -23.210938 29.238281 -24.578125 C 30.78125 -25.945312 31.554688 -27.871094 31.554688 -30.351562 C 31.554688 -32.148438 31.097656 -33.6875 30.191406 -34.964844 C 29.28125 -36.246094 28.085938 -37.089844 26.601562 -37.5 C 25.644531 -37.753906 23.875 -37.882812 21.296875 -37.882812 L 10.3125 -37.882812 Z M 10.3125 -22.53125"/></g><g id="glyph-0-5"><path d="M 3.898438 0 L 3.898438 -31.113281 L 8.640625 -31.113281 L 8.640625 -26.398438 C 9.851562 -28.605469 10.972656 -30.058594 11.996094 -30.761719 C 13.023438 -31.464844 14.148438 -31.816406 15.382812 -31.816406 C 17.160156 -31.816406 18.964844 -31.25 20.800781 -30.117188 L 18.984375 -25.226562 C 17.695312 -25.988281 16.40625 -26.367188 15.117188 -26.367188 C 13.964844 -26.367188 12.929688 -26.019531 12.011719 -25.328125 C 11.09375 -24.632812 10.4375 -23.671875 10.046875 -22.441406 C 9.460938 -20.566406 9.171875 -18.515625 9.171875 -16.289062 L 9.171875 0 Z M 3.898438 0"/></g><g id="glyph-0-6"><path d="M 24.257812 -3.835938 C 22.304688 -2.175781 20.425781 -1.007812 18.617188 -0.320312 C 16.8125 0.363281 14.875 0.703125 12.804688 0.703125 C 9.386719 0.703125 6.757812 -0.132812 4.921875 -1.800781 C 3.085938 -3.472656 2.167969 -5.605469 2.167969 -8.203125 C 2.167969 -9.726562 2.515625 -11.117188 3.207031 -12.378906 C 3.902344 -13.636719 4.808594 -14.648438 5.933594 -15.410156 C 7.054688 -16.171875 8.320312 -16.75 9.726562 -17.140625 C 10.761719 -17.414062 12.324219 -17.675781 14.414062 -17.929688 C 18.671875 -18.4375 21.804688 -19.042969 23.820312 -19.746094 C 23.839844 -20.46875 23.847656 -20.929688 23.847656 -21.125 C 23.847656 -23.273438 23.351562 -24.785156 22.351562 -25.664062 C 21.003906 -26.855469 19.003906 -27.453125 16.347656 -27.453125 C 13.867188 -27.453125 12.035156 -27.015625 10.855469 -26.148438 C 9.671875 -25.277344 8.796875 -23.742188 8.234375 -21.53125 L 3.078125 -22.234375 C 3.546875 -24.441406 4.316406 -26.226562 5.390625 -27.582031 C 6.464844 -28.941406 8.015625 -29.984375 10.046875 -30.71875 C 12.078125 -31.449219 14.433594 -31.816406 17.109375 -31.816406 C 19.765625 -31.816406 21.921875 -31.503906 23.585938 -30.878906 C 25.246094 -30.253906 26.464844 -29.46875 27.246094 -28.519531 C 28.027344 -27.574219 28.574219 -26.375 28.886719 -24.929688 C 29.0625 -24.03125 29.148438 -22.414062 29.148438 -20.070312 L 29.148438 -13.039062 C 29.148438 -8.136719 29.261719 -5.035156 29.488281 -3.734375 C 29.710938 -2.4375 30.15625 -1.191406 30.820312 0 L 25.3125 0 C 24.765625 -1.09375 24.414062 -2.375 24.257812 -3.835938 Z M 23.820312 -15.617188 C 21.90625 -14.835938 19.03125 -14.171875 15.203125 -13.625 C 13.035156 -13.3125 11.503906 -12.960938 10.605469 -12.570312 C 9.707031 -12.179688 9.015625 -11.605469 8.523438 -10.855469 C 8.035156 -10.101562 7.792969 -9.265625 7.792969 -8.351562 C 7.792969 -6.945312 8.324219 -5.773438 9.390625 -4.835938 C 10.453125 -3.898438 12.011719 -3.429688 14.0625 -3.429688 C 16.09375 -3.429688 17.898438 -3.871094 19.484375 -4.761719 C 21.066406 -5.648438 22.226562 -6.867188 22.96875 -8.40625 C 23.535156 -9.597656 23.820312 -11.359375 23.820312 -13.679688 Z M 23.820312 -15.617188"/></g><g id="glyph-0-7"><path d="M 24.257812 -11.398438 L 29.445312 -10.722656 C 28.878906 -7.148438 27.425781 -4.351562 25.09375 -2.328125 C 22.757812 -0.308594 19.890625 0.703125 16.492188 0.703125 C 12.234375 0.703125 8.8125 -0.6875 6.226562 -3.472656 C 3.636719 -6.253906 2.34375 -10.242188 2.34375 -15.4375 C 2.34375 -18.796875 2.898438 -21.738281 4.015625 -24.257812 C 5.128906 -26.777344 6.820312 -28.667969 9.097656 -29.925781 C 11.371094 -31.1875 13.847656 -31.816406 16.523438 -31.816406 C 19.902344 -31.816406 22.664062 -30.960938 24.8125 -29.253906 C 26.960938 -27.542969 28.339844 -25.117188 28.945312 -21.972656 L 23.820312 -21.179688 C 23.332031 -23.269531 22.464844 -24.84375 21.226562 -25.898438 C 19.984375 -26.953125 18.484375 -27.480469 16.726562 -27.480469 C 14.070312 -27.480469 11.914062 -26.527344 10.253906 -24.625 C 8.59375 -22.71875 7.765625 -19.707031 7.765625 -15.585938 C 7.765625 -11.40625 8.5625 -8.367188 10.164062 -6.476562 C 11.765625 -4.582031 13.859375 -3.632812 16.4375 -3.632812 C 18.507812 -3.632812 20.234375 -4.265625 21.621094 -5.539062 C 23.007812 -6.808594 23.886719 -8.757812 24.257812 -11.398438 Z M 24.257812 -11.398438"/></g><g id="glyph-0-8"><path d="M 3.984375 -36.882812 L 3.984375 -42.949219 L 9.257812 -42.949219 L 9.257812 -36.882812 Z M 3.984375 0 L 3.984375 -31.113281 L 9.257812 -31.113281 L 9.257812 0 Z M 3.984375 0"/></g><g id="glyph-0-9"><path d="M 24.140625 0 L 24.140625 -3.925781 C 22.167969 -0.839844 19.265625 0.703125 15.4375 0.703125 C 12.957031 0.703125 10.679688 0.0195312 8.597656 -1.347656 C 6.519531 -2.714844 4.90625 -4.625 3.765625 -7.074219 C 2.621094 -9.527344 2.050781 -12.34375 2.050781 -15.527344 C 2.050781 -18.632812 2.570312 -21.449219 3.601562 -23.980469 C 4.636719 -26.507812 6.191406 -28.445312 8.261719 -29.796875 C 10.332031 -31.144531 12.648438 -31.816406 15.203125 -31.816406 C 17.078125 -31.816406 18.75 -31.421875 20.214844 -30.628906 C 21.679688 -29.839844 22.871094 -28.808594 23.789062 -27.539062 L 23.789062 -42.949219 L 29.03125 -42.949219 L 29.03125 0 Z M 7.46875 -15.527344 C 7.46875 -11.542969 8.3125 -8.5625 9.992188 -6.59375 C 11.671875 -4.621094 13.652344 -3.632812 15.9375 -3.632812 C 18.242188 -3.632812 20.199219 -4.574219 21.8125 -6.460938 C 23.421875 -8.34375 24.226562 -11.21875 24.226562 -15.085938 C 24.226562 -19.34375 23.40625 -22.46875 21.765625 -24.460938 C 20.125 -26.453125 18.105469 -27.453125 15.703125 -27.453125 C 13.359375 -27.453125 11.402344 -26.492188 9.828125 -24.578125 C 8.257812 -22.664062 7.46875 -19.648438 7.46875 -15.527344 Z M 7.46875 -15.527344"/></g><g id="glyph-0-10"><path d="M 2.988281 2.578125 L 8.117188 3.339844 C 8.332031 4.921875 8.925781 6.074219 9.902344 6.796875 C 11.210938 7.773438 13 8.261719 15.265625 8.261719 C 17.707031 8.261719 19.589844 7.773438 20.917969 6.796875 C 22.246094 5.820312 23.144531 4.453125 23.613281 2.695312 C 23.886719 1.621094 24.015625 -0.632812 23.992188 -4.070312 C 21.6875 -1.355469 18.820312 0 15.382812 0 C 11.105469 0 7.792969 -1.542969 5.449219 -4.628906 C 3.105469 -7.714844 1.933594 -11.414062 1.933594 -15.734375 C 1.933594 -18.703125 2.46875 -21.441406 3.546875 -23.949219 C 4.621094 -26.460938 6.175781 -28.398438 8.21875 -29.765625 C 10.257812 -31.132812 12.65625 -31.816406 15.410156 -31.816406 C 19.082031 -31.816406 22.109375 -30.332031 24.492188 -27.363281 L 24.492188 -31.113281 L 29.355469 -31.113281 L 29.355469 -4.21875 C 29.355469 0.625 28.863281 4.058594 27.875 6.078125 C 26.890625 8.101562 25.328125 9.695312 23.1875 10.867188 C 21.050781 12.039062 18.417969 12.625 15.292969 12.625 C 11.582031 12.625 8.585938 11.792969 6.296875 10.121094 C 4.011719 8.453125 2.910156 5.9375 2.988281 2.578125 Z M 7.351562 -16.113281 C 7.351562 -12.03125 8.164062 -9.054688 9.785156 -7.179688 C 11.40625 -5.304688 13.4375 -4.367188 15.878906 -4.367188 C 18.300781 -4.367188 20.332031 -5.296875 21.972656 -7.164062 C 23.613281 -9.027344 24.433594 -11.953125 24.433594 -15.9375 C 24.433594 -19.746094 23.589844 -22.617188 21.898438 -24.550781 C 20.210938 -26.484375 18.171875 -27.453125 15.789062 -27.453125 C 13.445312 -27.453125 11.453125 -26.5 9.8125 -24.59375 C 8.171875 -22.691406 7.351562 -19.863281 7.351562 -16.113281 Z M 7.351562 -16.113281"/></g></defs><g><use y="50" xlink:href="#glyph-0-0"/><use x="40.02" y="50" xlink:href="#glyph-0-1"/><use x="73.389" y="50" xlink:href="#glyph-0-2"/><use x="103.389" y="50" xlink:href="#glyph-0-3"/></g><g><use y="120" xlink:href="#glyph-0-4"/><use x="40.02" y="120" xlink:href="#glyph-0-5"/><use x="60" y="120" xlink:href="#glyph-0-6"/><use x="93.369" y="120" xlink:href="#glyph-0-7"/><use x="123.369" y="120" xlink:href="#glyph-0-3"/><use x="140.039" y="120" xlink:href="#glyph-0-8"/><use x="153.369" y="120" xlink:href="#glyph-0-7"/><use x="183.369" y="120" xlink:href="#glyph-0-1"/><use x="216.738" y="120" xlink:href="#glyph-0-2"/></g><g><use y="180" xlink:href="#glyph-0-0"/><use x="40.02" y="180" xlink:href="#glyph-0-6"/><use x="73.389" y="180" xlink:href="#glyph-0-9"/><use x="106.758" y="180" xlink:href="#glyph-0-10"/><use x="140.127" y="180" xlink:href="#glyph-0-1"/></g></svg>

<svg xmlns="http://www.w3.org/2000/svg" role="img" xmlns:xlink="http://www.w3.org/1999/xlink" viewBox="-0.55 2.20 249.60 195.10"><title>Best Practices Badge logo</title><defs><path d="M4.39453 0v-42.94922h16.11328c3.28125 0 5.91407.4336 7.89453 1.30469 1.98438.86719 3.53516 2.20703 4.66016 4.01172 1.1211 1.8086 1.6836 3.69531 1.6836 5.67187 0 1.83594-.4961 3.5625-1.4961 5.1836-.9961 1.62109-2.5 2.92968-4.50781 3.92578 2.59765.76172 4.59375 2.0625 5.98828 3.89843 1.39844 1.83594 2.09766 4 2.09766 6.5 0 2.01172-.42579 3.88282-1.27735 5.61329-.84766 1.72656-1.89844 3.05859-3.14844 3.99609s-2.8164 1.64844-4.70312 2.125C25.8164-.23828 23.50782 0 20.77344 0zm5.6836-24.90234h9.28906c2.51953 0 4.32422-.16797 5.41797-.4961 1.4453-.42968 2.53515-1.14453 3.26562-2.14062.73438-.9961 1.09766-2.2461 1.09766-3.75 0-1.42578-.33985-2.67969-1.02344-3.76563-.6836-1.08203-1.66016-1.82422-2.92969-2.22656-1.26953-.39844-3.44531-.60156-6.53125-.60156h-8.58593zm0 19.83203h10.6953c1.83594 0 3.125-.0664 3.8672-.20313 1.30859-.23437 2.39843-.625 3.28124-1.17187.87891-.54688 1.60157-1.34375 2.16407-2.38672.5664-1.04688.85156-2.2539.85156-3.6211 0-1.60156-.41016-2.99218-1.23047-4.17187-.82031-1.1836-1.95703-2.01172-3.41406-2.49219-1.45313-.47656-3.55078-.71875-6.28516-.71875h-9.92968zm0 0" id="a"/><path d="M25.2539-10.01953l5.44922.67578c-.85937 3.1836-2.45312 5.65234-4.77343 7.41016C23.60547-.1758 20.6328.70312 17.02344.70312 12.47266.70313 8.86328-.69921 6.1953-3.5c-2.66406-2.80469-4-6.73438-4-11.79297 0-5.23437 1.35156-9.29687 4.04688-12.1875 2.69531-2.89062 6.1875-4.33594 10.48437-4.33594 4.16016 0 7.5625 1.41797 10.19532 4.2461C29.55859-24.73828 30.8789-20.75 30.8789-15.6172c0 .3125-.01172.78125-.02735 1.40625H7.64844c.19531 3.41797 1.16015 6.03907 2.89844 7.85157 1.73828 1.8164 3.90625 2.72656 6.5039 2.72656 1.9336 0 3.58203-.50781 4.94922-1.52344 1.36719-1.01563 2.45313-2.63672 3.2539-4.86328zM7.9375-18.54688h17.375c-.23438-2.61718-.89844-4.57812-1.99219-5.88671-1.67968-2.03125-3.85937-3.04688-6.53125-3.04688-2.42187 0-4.46093.8086-6.10937 2.4336-1.65235 1.62109-2.5625 3.78906-2.74219 6.5zm0 0" id="b"/><path d="M1.84375-9.28906l5.21875-.82032c.29297 2.08985 1.10547 3.69532 2.44531 4.8047 1.33594 1.11327 3.20703 1.67187 5.60938 1.67187 2.42187 0 4.21875-.49219 5.39062-1.48047 1.17188-.98438 1.75782-2.14453 1.75782-3.47266 0-1.1914-.51563-2.125-1.5547-2.8125-.72265-.46875-2.51562-1.0625-5.39062-1.78515-3.86718-.97657-6.54687-1.82032-8.03906-2.53516-1.4961-.71094-2.6289-1.69922-3.39844-2.95703-.77344-1.26172-1.15625-2.65235-1.15625-4.17578 0-1.38672.3164-2.67188.94922-3.85157.63672-1.18359 1.5-2.16406 2.59375-2.9453.82031-.60548 1.9375-1.1172 3.35547-1.53907 1.41406-.41797 2.9336-.6289 4.55469-.6289 2.4414 0 4.58593.35156 6.42968 1.05468 1.84766.70313 3.21094 1.65625 4.08594 2.85547.8789 1.20313 1.48438 2.8086 1.82032 4.82031l-5.15626.70313c-.23437-1.60157-.91406-2.85157-2.03906-3.75-1.1211-.89844-2.71093-1.34766-4.75781-1.34766-2.42188 0-4.15234.40235-5.1875 1.19922-1.03516.80078-1.55469 1.74219-1.55469 2.8125 0 .6836.21875 1.30078.64844 1.84766.42969.5664 1.10156 1.03515 2.01953 1.40625.52735.1953 2.08203.64453 4.66016 1.34765 3.73047.9961 6.33203 1.8125 7.80468 2.44532 1.47657.63671 2.63282 1.55859 3.47266 2.76953.83985 1.21093 1.26172 2.71484 1.26172 4.51172 0 1.7578-.51563 3.41406-1.53906 4.96484-1.02735 1.55469-2.50782 2.7539-4.4375 3.60547-1.9336.84765-4.125 1.27344-6.5625 1.27344-4.04297 0-7.125-.83985-9.2461-2.51954C3.78516-3.49609 2.4297-5.98437 1.84375-9.28906zm0 0" id="c"/><path d="M15.46875-4.71875l.76172 4.66016c-1.48438.3125-2.8125.46875-3.98438.46875-1.91406 0-3.39843-.30079-4.45312-.91016-1.05469-.60547-1.79688-1.39844-2.22656-2.38672-.4297-.98437-.64454-3.0586-.64454-6.22266v-17.90234H1.0547v-4.10156h3.86719v-7.70703l5.24218-3.16407v10.8711h5.30469v4.10156h-5.30469v18.1914c0 1.50391.09375 2.47266.28125 2.90235.1836.42969.48828.76953.90625 1.02735.42188.2539 1.02344.3789 1.80469.3789.58594 0 1.35547-.0664 2.3125-.20703zm0 0" id="d"/><path d="M4.6289 0v-42.94922h16.19922c2.85157 0 5.03126.13672 6.53516.41016 2.10938.35156 3.8789 1.01953 5.30078 2.00781 1.42578.98438 2.57422 2.36719 3.44532 4.14453.86718 1.77734 1.30468 3.73047 1.30468 5.85938 0 3.65234-1.16406 6.74218-3.48828 9.27343-2.32422 2.52735-6.52344 3.79297-12.59766 3.79297H10.3125V0zm5.6836-22.53125h11.10156c3.67188 0 6.28125-.67969 7.82422-2.04688 1.54297-1.36718 2.3164-3.29296 2.3164-5.77343 0-1.79688-.45702-3.33594-1.36327-4.61328-.91016-1.28125-2.10547-2.125-3.58985-2.53516-.95703-.2539-2.72656-.38281-5.30468-.38281H10.3125zm0 0" id="e"/><path d="M3.89844 0v-31.11328h4.74218v4.71484c1.21094-2.20703 2.33204-3.66015 3.35547-4.36328 1.02735-.70312 2.15235-1.05469 3.38672-1.05469 1.77735 0 3.58203.56641 5.41797 1.69922l-1.8164 4.89063c-1.28907-.76172-2.57813-1.14063-3.8672-1.14063-1.15234 0-2.1875.34766-3.10546 1.03907-.91797.6953-1.57422 1.65624-1.96485 2.88671-.58593 1.875-.875 3.92579-.875 6.15235V0zm0 0" id="f"/><path d="M24.25781-3.83594C22.3047-2.17578 20.42578-1.0078 18.6172-.3203 16.8125.36329 14.875.70313 12.80469.70313c-3.41797 0-6.04688-.83594-7.88282-2.50391-1.83593-1.67188-2.7539-3.80469-2.7539-6.40235 0-1.52343.34766-2.91406 1.03906-4.17578.69531-1.2578 1.60156-2.26953 2.72656-3.03125 1.1211-.76172 2.38672-1.33984 3.79297-1.73047 1.03516-.27343 2.59766-.53515 4.6875-.78906 4.25782-.50781 7.39063-1.11328 9.40625-1.8164.01953-.72266.02735-1.1836.02735-1.37891 0-2.14844-.4961-3.66016-1.4961-4.53906-1.34765-1.1914-3.34765-1.78907-6.0039-1.78907-2.48047 0-4.3125.4375-5.4922 1.3047-1.18359.87109-2.05859 2.40624-2.62109 4.61718l-5.15625-.70313c.46875-2.20703 1.23829-3.99218 2.3125-5.34765 1.07422-1.35938 2.625-2.40235 4.65625-3.13672 2.03125-.73047 4.38672-1.09766 7.0625-1.09766 2.65626 0 4.8125.3125 6.47657.9375 1.66015.625 2.8789 1.41016 3.66015 2.35938.78125.94531 1.32813 2.14453 1.64063 3.58984.17578.89844.26172 2.51563.26172 4.85938v7.03125c0 4.90234.11328 8.0039.33984 9.30468C29.71094-2.4375 30.15625-1.1914 30.82031 0H25.3125c-.54688-1.09375-.89844-2.375-1.05469-3.83594zm-.4375-11.78125c-1.91406.78125-4.78906 1.44532-8.61718 1.99219-2.16797.3125-3.69922.66406-4.59766 1.05469-.89844.39062-1.58985.96484-2.08203 1.71484-.48828.7539-.73047 1.58985-.73047 2.5039 0 1.40626.53125 2.57813 1.59765 3.51563 1.0625.9375 2.6211 1.40625 4.67188 1.40625 2.03125 0 3.83594-.4414 5.42188-1.33203 1.58203-.88672 2.74218-2.10547 3.48437-3.64453.5664-1.1914.85156-2.95313.85156-5.27344zm0 0" id="g"/><path d="M24.25781-11.39844l5.1875.67578c-.5664 3.57422-2.01953 6.3711-4.35156 8.39453C22.75781-.30858 19.89062.70313 16.49219.70313c-4.25782 0-7.67969-1.39062-10.26563-4.17578C3.63672-6.2539 2.34375-10.24219 2.34375-15.4375c0-3.35938.55469-6.30078 1.67188-8.82031 1.11328-2.51953 2.80468-4.41016 5.08203-5.66797 2.27343-1.26172 4.75-1.89063 7.42578-1.89063 3.3789 0 6.14062.85547 8.28906 2.5625 2.14844 1.71094 3.52734 4.13672 4.13281 7.28125l-5.125.79297c-.48828-2.08984-1.35547-3.66406-2.59375-4.71875-1.24218-1.05468-2.74218-1.58203-4.5-1.58203-2.65625 0-4.8125.95313-6.47265 2.85547-1.66016 1.90625-2.48828 4.91797-2.48828 9.03906 0 4.17969.79687 7.21875 2.39843 9.10938 1.60157 1.89453 3.69532 2.84375 6.27344 2.84375 2.07031 0 3.79688-.63281 5.1836-1.90625 1.38671-1.26953 2.26562-3.21875 2.63671-5.85938zm0 0" id="h"/><path d="M3.98438-36.88281v-6.0664H9.2578v6.0664zM3.98438 0v-31.11328H9.2578V0zm0 0" id="i"/><path d="M24.14063 0v-3.92578c-1.97266 3.08594-4.875 4.6289-8.70313 4.6289-2.48047 0-4.75781-.68359-6.83984-2.05078C6.51953-2.71484 4.90625-4.625 3.76563-7.07422c-1.14454-2.45312-1.71485-5.26953-1.71485-8.45312 0-3.10547.51953-5.92188 1.55078-8.45313 1.03516-2.52734 2.58985-4.46484 4.66016-5.8164 2.07031-1.34766 4.38672-2.01954 6.9414-2.01954 1.875 0 3.54688.39454 5.01172 1.1875 1.46485.78907 2.65625 1.82032 3.57422 3.08985v-15.41016h5.24219V0zM7.46874-15.52734c0 3.98437.84375 6.96484 2.52344 8.93359 1.67968 1.97266 3.66015 2.96094 5.94531 2.96094 2.30469 0 4.26172-.9414 5.875-2.82813 1.60938-1.88281 2.41406-4.75781 2.41406-8.625 0-4.25781-.82031-7.38281-2.46093-9.375-1.64063-1.99218-3.66016-2.99218-6.0625-2.99218-2.34375 0-4.30079.96093-5.875 2.875-1.57032 1.91406-2.35938 4.92968-2.35938 9.05078zm0 0" id="j"/><path d="M2.98828 2.57813l5.1289.76171c.21485 1.58203.8086 2.73438 1.78516 3.45703 1.3086.97657 3.09766 1.46485 5.36328 1.46485 2.44141 0 4.32422-.48828 5.65235-1.46485 1.32812-.97656 2.22656-2.34375 2.69531-4.10156.27344-1.07422.40235-3.32812.3789-6.76562C21.6875-1.35547 18.82032 0 15.38282 0c-4.27734 0-7.58984-1.54297-9.9336-4.6289C3.10548-7.71485 1.9336-11.41407 1.9336-15.73438c0-2.96875.53516-5.70704 1.61329-8.21485 1.07421-2.51172 2.6289-4.44922 4.67187-5.8164 2.03906-1.3672 4.4375-2.05079 7.1914-2.05079 3.67188 0 6.69923 1.48438 9.08204 4.45313v-3.75h4.86328v26.89453c0 4.84375-.49219 8.27734-1.48047 10.29688-.98438 2.02343-2.54688 3.61718-4.6875 4.78906-2.13672 1.17187-4.76953 1.75781-7.89453 1.75781-3.71094 0-6.70703-.83203-8.9961-2.5039-2.28515-1.66798-3.38671-4.1836-3.30859-7.54298zm4.36328-18.69141c0 4.08203.8125 7.0586 2.4336 8.9336 1.62109 1.875 3.65234 2.8125 6.09375 2.8125 2.42187 0 4.45312-.9297 6.09375-2.79688 1.64062-1.86328 2.46093-4.78906 2.46093-8.77344 0-3.8086-.84375-6.67969-2.53515-8.61328-1.6875-1.9336-3.72657-2.90235-6.10938-2.90235-2.34375 0-4.33593.95313-5.97656 2.85938-1.64063 1.90234-2.46094 4.73047-2.46094 8.48047zm0 0" id="k"/></defs><use y="50" xlink:href="#a"/><use x="40.02" y="50" xlink:href="#b"/><use x="73.389" y="50" xlink:href="#c"/><use x="103.389" y="50" xlink:href="#d"/><g><use y="120" xlink:href="#e"/><use x="40.02" y="120" xlink:href="#f"/><use x="60" y="120" xlink:href="#g"/><use x="93.369" y="120" xlink:href="#h"/><use x="123.369" y="120" xlink:href="#d"/><use x="140.039" y="120" xlink:href="#i"/><use x="153.369" y="120" xlink:href="#h"/><use x="183.369" y="120" xlink:href="#b"/><use x="216.738" y="120" xlink:href="#c"/></g><g><use y="180" xlink:href="#a"/><use x="40.02" y="180" xlink:href="#g"/><use x="73.389" y="180" xlink:href="#j"/><use x="106.758" y="180" xlink:href="#k"/><use x="140.127" y="180" xlink:href="#b"/></g></svg>
